src/microsoft-sharepoint.svg

<svg viewBox="0 0 24 24" fill="none" xmlns="http://www.w3.org/2000/svg">
<path d="M11 14C14.3137 14 17 11.3137 17 8C17 4.68629 14.3137 2 11 2C7.68629 2 5 4.68629 5 8C5 11.3137 7.68629 14 11 14Z" fill="#036C70"/>
<path d="M17 18C19.7614 18 22 15.7614 22 13C22 10.2386 19.7614 8 17 8C14.2386 8 12 10.2386 12 13C12 15.7614 14.2386 18 17 18Z" fill="#1A9BA1"/>
<path d="M12 22C14.2091 22 16 20.2091 16 18C16 15.7909 14.2091 14 12 14C9.79086 14 8 15.7909 8 18C8 20.2091 9.79086 22 12 22Z" fill="#37C6D0"/>
<path d="M2.83333 7H11.1667C11.6269 7 12 7.37311 12 7.83334V16.1667C12 16.6269 11.6269 17 11.1667 17H2.83334C2.3731 17 2 16.6269 2 16.1667V7.83333C2 7.37309 2.3731 7 2.83333 7Z" fill="#03787C"/>
<path d="M4.80687 11.8614C4.56196 11.683 4.35748 11.4451 4.20913 11.1661C4.06487 10.8745 3.99301 10.5463 4.0008 10.2144C3.98814 9.76541 4.12589 9.32694 4.38785 8.9824C4.66304 8.63742 5.01887 8.38202 5.4167 8.24394C5.87026 8.07946 6.34536 7.99838 6.8229 8.00394C7.45069 7.97864 8.07762 8.07537 8.67488 8.28968V9.7292C8.41531 9.55586 8.13259 9.42851 7.83708 9.35181C7.51644 9.26505 7.18738 9.2216 6.85719 9.22242C6.50917 9.20865 6.16341 9.28915 5.85028 9.45686C5.60873 9.57172 5.45198 9.83318 5.45106 10.1227C5.4495 10.2982 5.51016 10.4675 5.62018 10.5946C5.75085 10.7437 5.90522 10.8652 6.07566 10.953C6.2669 11.0574 6.55191 11.1958 6.93069 11.3682C6.97267 11.3828 7.01361 11.4008 7.05317 11.4221C7.42695 11.583 7.78755 11.7787 8.13105 12.0071C8.39121 12.1836 8.60952 12.4257 8.76798 12.7133C8.93123 13.0386 9.01084 13.4068 8.99825 13.7782C9.01674 14.2393 8.88852 14.693 8.63568 15.0613C8.38333 15.4 8.04593 15.6494 7.6656 15.7784C7.2187 15.9326 6.75227 16.0072 6.28396 15.9994C5.86454 16.0014 5.44574 15.9635 5.03224 15.8862C4.68251 15.8249 4.34102 15.7163 4.01553 15.5627V14.0424C4.32717 14.287 4.67541 14.4694 5.04441 14.5815C5.41102 14.7073 5.79218 14.7745 6.17617 14.781C6.53179 14.8059 6.88679 14.7229 7.20252 14.5411C7.42196 14.4026 7.55463 14.1427 7.54801 13.8644C7.54931 13.6703 7.4796 13.4838 7.35456 13.3468C7.19845 13.1785 7.0179 13.04 6.82037 12.9371C6.59339 12.8113 6.25781 12.646 5.81363 12.4411C5.46136 12.2852 5.12411 12.091 4.80687 11.8614Z" fill="white"/>
</svg>

<svg xmlns="http://www.w3.org/2000/svg" fill="none" viewBox="0 0 24 24"><path fill="#036C70" d="M11 14a6 6 0 1 0 0-12 6 6 0 0 0 0 12Z"/><path fill="#1A9BA1" d="M17 18a5 5 0 1 0 0-10 5 5 0 0 0 0 10Z"/><path fill="#37C6D0" d="M12 22a4 4 0 1 0 0-8 4 4 0 0 0 0 8Z"/><path fill="#03787C" d="M2.833 7h8.334c.46 0 .833.373.833.833v8.334c0 .46-.373.833-.833.833H2.833A.833.833 0 0 1 2 16.167V7.833c0-.46.373-.833.833-.833Z"/><path fill="#fff" d="M4.807 11.861a2.045 2.045 0 0 1-.598-.695 2.043 2.043 0 0 1-.208-.952 1.95 1.95 0 0 1 .387-1.232c.275-.345.63-.6 1.029-.738a3.984 3.984 0 0 1 1.406-.24 4.893 4.893 0 0 1 1.852.286v1.44c-.26-.174-.542-.301-.838-.378-.32-.087-.65-.13-.98-.13a1.964 1.964 0 0 0-1.007.235.733.733 0 0 0-.399.666.713.713 0 0 0 .17.472c.13.149.284.27.455.358.19.104.476.243.855.415a.841.841 0 0 1 .122.054c.374.161.735.357 1.078.585.26.177.479.419.637.706.163.326.243.694.23 1.065.019.461-.11.915-.362 1.283-.253.339-.59.588-.97.717A4.026 4.026 0 0 1 6.284 16a6.637 6.637 0 0 1-1.252-.113 4 4 0 0 1-1.016-.323v-1.52c.311.244.66.426 1.028.539.367.125.748.192 1.132.199a1.8 1.8 0 0 0 1.027-.24.776.776 0 0 0 .345-.677.762.762 0 0 0-.193-.517 1.974 1.974 0 0 0-.535-.41 16.379 16.379 0 0 0-1.006-.496 5.545 5.545 0 0 1-1.007-.58Z"/></svg>
